svgs/duotone/face-sad-cry.svg

<svg xmlns="http://www.w3.org/2000/svg" viewBox="0 0 512 512"><!--! Font Awesome Pro 6.4.0 by @fontawesome - https://fontawesome.com License - https://fontawesome.com/license (Commercial License) Copyright 2023 Fonticons, Inc. --><defs><style>.fa-secondary{opacity:.4}</style></defs><path class="fa-primary" d="M195.2 233.6c-17.6-23.5-52.8-23.5-70.4 0c-5.3 7.1-15.3 8.5-22.4 3.2s-8.5-15.3-3.2-22.4c30.4-40.5 91.2-40.5 121.6 0c5.3 7.1 3.9 17.1-3.2 22.4s-17.1 3.9-22.4-3.2zM128 477.8V288c0-8.8 7.2-16 16-16s16 7.2 16 16V493.4c-11.1-4.5-21.8-9.7-32-15.6zm224 15.6V288c0-8.8 7.2-16 16-16s16 7.2 16 16V477.8c-10.2 5.9-20.9 11.2-32 15.6zM316.8 233.6c-5.3 7.1-15.3 8.5-22.4 3.2s-8.5-15.3-3.2-22.4c30.4-40.5 91.2-40.5 121.6 0c5.3 7.1 3.9 17.1-3.2 22.4s-17.1 3.9-22.4-3.2c-17.6-23.5-52.8-23.5-70.4 0z"/><path class="fa-secondary" d="M352 493.4c-29.6 12-62.1 18.6-96 18.6s-66.4-6.6-96-18.6V288c0-8.8-7.2-16-16-16s-16 7.2-16 16V477.8C51.5 433.5 0 350.8 0 256C0 114.6 114.6 0 256 0S512 114.6 512 256c0 94.8-51.5 177.5-128 221.8V288c0-8.8-7.2-16-16-16s-16 7.2-16 16V493.4zM195.2 233.6c5.3 7.1 15.3 8.5 22.4 3.2s8.5-15.3 3.2-22.4c-30.4-40.5-91.2-40.5-121.6 0c-5.3 7.1-3.9 17.1 3.2 22.4s17.1 3.9 22.4-3.2c17.6-23.5 52.8-23.5 70.4 0zm121.6 0c17.6-23.5 52.8-23.5 70.4 0c5.3 7.1 15.3 8.5 22.4 3.2s8.5-15.3 3.2-22.4c-30.4-40.5-91.2-40.5-121.6 0c-5.3 7.1-3.9 17.1 3.2 22.4s17.1 3.9 22.4-3.2zM208 336v32c0 26.5 21.5 48 48 48s48-21.5 48-48V336c0-26.5-21.5-48-48-48s-48 21.5-48 48z"/></svg>

<svg xmlns="http://www.w3.org/2000/svg" viewBox="0 0 512 512"><!--! Font Awesome Pro 6.3.0 by @fontawesome - https://fontawesome.com License - https://fontawesome.com/license (Commercial License) Copyright 2023 Fonticons, Inc. --><defs><style>.fa-secondary{opacity:.4}</style></defs><path class="fa-primary" d="M195.2 233.6C177.6 210.1 142.4 210.1 124.8 233.6C119.5 240.7 109.5 242.1 102.4 236.8C95.33 231.5 93.9 221.5 99.2 214.4C129.6 173.9 190.4 173.9 220.8 214.4C226.1 221.5 224.7 231.5 217.6 236.8C210.5 242.1 200.5 240.7 195.2 233.6V233.6zM128 477.8V288C128 279.2 135.2 272 144 272C152.8 272 160 279.2 160 288V493.4C148.9 488.9 138.2 483.7 128 477.8V477.8zM352 493.4V288C352 279.2 359.2 272 368 272C376.8 272 384 279.2 384 288V477.8C373.8 483.7 363.1 488.9 352 493.4V493.4zM294.4 236.8C287.3 231.5 285.9 221.5 291.2 214.4C321.6 173.9 382.4 173.9 412.8 214.4C418.1 221.5 416.7 231.5 409.6 236.8C402.5 242.1 392.5 240.7 387.2 233.6C369.6 210.1 334.4 210.1 316.8 233.6C311.5 240.7 301.5 242.1 294.4 236.8V236.8z"/><path class="fa-secondary" d="M352 493.4C322.4 505.4 289.9 512 256 512C222.1 512 189.6 505.4 160 493.4V288C160 279.2 152.8 272 144 272C135.2 272 128 279.2 128 288V477.8C51.48 433.5 0 350.8 0 256C0 114.6 114.6 0 256 0C397.4 0 512 114.6 512 256C512 350.8 460.5 433.5 384 477.8V288C384 279.2 376.8 272 368 272C359.2 272 352 279.2 352 288V493.4zM217.6 236.8C224.7 231.5 226.1 221.5 220.8 214.4C190.4 173.9 129.6 173.9 99.2 214.4C93.9 221.5 95.33 231.5 102.4 236.8C109.5 242.1 119.5 240.7 124.8 233.6C142.4 210.1 177.6 210.1 195.2 233.6C200.5 240.7 210.5 242.1 217.6 236.8zM316.8 233.6C334.4 210.1 369.6 210.1 387.2 233.6C392.5 240.7 402.5 242.1 409.6 236.8C416.7 231.5 418.1 221.5 412.8 214.4C382.4 173.9 321.6 173.9 291.2 214.4C285.9 221.5 287.3 231.5 294.4 236.8C301.5 242.1 311.5 240.7 316.8 233.6zM208 368C208 394.5 229.5 416 256 416C282.5 416 304 394.5 304 368V336C304 309.5 282.5 288 256 288C229.5 288 208 309.5 208 336V368z"/></svg>
